X:009
T:Dark Island
C:Ian Maclachlan
S:Various records
Z:Nigel Gatherer
M:3/4
L:1/8
K:Dmix
E|A3 E A2|G3 A G2|E3 D C2|D4 GA|
B3 A G2|B d3 D2|B3 d B2|A4 DE|
A3 E A2|G3 A G2|E3 D C2|D4 GA|
B3 DdB|A3 DBA|G6|G4|]
Bc|d3 D D2|B3 A G2|E C3 E2|D4 GA|
B3 A G2|B d3 D2|B3 d B2|A4 DE|
A3 E A2|G3 A G2|E3 D C2|D4 GA|
B3 DdB|A3 DBA|G6|G4|]
